public/img/logo-color.svg

<?xml version="1.0" encoding="UTF-8"?><svg id="a" xmlns="http://www.w3.org/2000/svg" xmlns:xlink="http://www.w3.org/1999/xlink" viewBox="0 0 1250 400"><defs><style>.p{fill:url(#l);}.q{fill:url(#c);}.r{fill:url(#m);}.s{fill:url(#f);}.t{fill:url(#g);}.u{fill:url(#b);}.v{fill:url(#i);}.w{fill:url(#h);}.x{fill:#808285;}.y{fill:url(#d);}.a`{fill:url(#e);}.aa{fill:url(#n);}.ab{fill:url(#j);}.ac{fill:url(#o);}.ad{fill:url(#k);}</style><linearGradient id="b" x1="407.79" y1="97.2" x2="407.79" y2="302.37" gradientTransform="matrix(1, 0, 0, 1, 0, 0)" gradientUnits="userSpaceOnUse"><stop offset="0" stop-color="#4b9ad4"/><stop offset=".38" stop-color="#4068b2"/><stop offset="1" stop-color="#292b77"/></linearGradient><linearGradient id="c" x1="355.34" y1="210.72" x2="380.55" y2="126.67" xlink:href="#b"/><linearGradient id="d" x1="603.26" y1="233.45" x2="534.74" y2="162.74" xlink:href="#b"/><linearGradient id="e" x1="259.43" y1="97.2" x2="259.43" y2="302.37" xlink:href="#b"/><linearGradient id="f" x1="312.77" y1="301.21" x2="323" y2="259.91" xlink:href="#b"/><linearGradient id="g" x1="301.81" y1="207.55" x2="301.81" y2="246.96" xlink:href="#b"/><linearGradient id="h" x1="361.83" y1="238.9" x2="361.83" y2="329.51" xlink:href="#b"/><linearGradient id="i" x1="389.03" y1="238.9" x2="389.03" y2="329.51" xlink:href="#b"/><linearGradient id="j" x1="416.23" y1="238.9" x2="416.23" y2="329.51" xlink:href="#b"/><linearGradient id="k" x1="179.11" y1="184.61" x2="179.11" y2="270.08" xlink:href="#b"/><linearGradient id="l" x1="127.5" y1="150.03" x2="127.5" y2="322.94" xlink:href="#b"/><linearGradient id="m" x1="259.43" y1="97.2" x2="259.43" y2="302.37" xlink:href="#b"/><linearGradient id="n" x1="344.92" y1="117.85" x2="247.28" y2="117.85" xlink:href="#b"/><linearGradient id="o" x1="544.01" y1="97.2" x2="544.01" y2="302.37" xlink:href="#b"/></defs><g><polygon class="u" points="418.18 99.78 370.77 99.78 317.6 236.64 356.07 236.64 394.47 137.78 459.51 305.2 497.98 305.2 418.18 99.78"/><path class="q" d="M391.44,129.97c-5.32-13.69-24.32-14.61-30.95-1.5-2.3,4.55-4.61,9.63-6.79,15.24h0l-36.1,92.92h38.47l38.41-98.86,7.17,18.46h0l-10.2-26.27Z"/><path class="y" d="M592.17,305.2h-74.37l-13.85-35.86h88.22c13.49,0,24.46-10.97,24.46-24.46s-10.97-24.46-24.46-24.46h-72.54c-33.26,0-60.32-27.06-60.32-60.32s27.06-60.32,60.32-60.32h109.07v35.86h-109.07c-13.49,0-24.46,10.97-24.46,24.46s10.97,24.46,24.46,24.46h72.54c33.26,0,60.32,27.06,60.32,60.32s-27.06,60.32-60.32,60.32Z"/><rect class="a`" x="241.51" y="117.85" width="35.86" height="187.35"/><path class="s" d="M310.72,254.35l-19.76,50.85h38.47l8.23-21.19c5.55-14.28-4.99-29.66-20.3-29.66h-6.65Z"/><path class="t" d="M413.68,213.44c-1.16-3.27-4.23-5.49-7.7-5.49H188.42v28.69h217.55c3.47,0,6.54-2.21,7.7-5.49,.97-2.74,1.51-5.73,1.51-8.86s-.54-6.11-1.51-8.86Z"/><rect class="w" x="351.96" y="285.46" width="19.74" height="19.74"/><rect class="v" x="379.16" y="266.11" width="19.74" height="39.09"/><rect class="ab" x="406.36" y="250.05" width="19.74" height="55.15"/><rect class="ad" x="166.02" y="194.54" width="26.17" height="55.52"/><path class="p" d="M127.5,293.53c-29.44,0-52.5-31.29-52.5-71.24s23.06-71.24,52.5-71.24,52.5,31.29,52.5,71.24-23.06,71.24-52.5,71.24Zm0-120.96c-16.8,0-30.99,22.77-30.99,49.72s14.19,49.72,30.99,49.72,30.99-22.77,30.99-49.72-14.19-49.72-30.99-49.72Z"/><polygon class="r" points="166.91 99.92 180.9 135.78 337.97 135.78 351.96 99.92 166.91 99.92"/><path class="aa" d="M351.96,99.92h-113.74c21.56,0,39.15,17.37,39.15,35.86h60.6l13.99-35.86Z"/><path class="ac" d="M459.31,160.1c0,33.26,27.06,60.32,60.32,60.32h36.27c-41.18,0-60.73-30.4-60.73-60.32,0-13.49,10.97-24.46,24.46-24.46h109.07v-35.86h-109.07c-33.26,0-60.32,27.06-60.32,60.32Z"/></g><g><path class="x" d="M680.26,97.29h37.12v9.26h-13.46v40.61h-10.26v-40.61h-13.39v-9.26Z"/><path class="x" d="M734.75,97.29v32.91c0,5.56,3.06,9.33,8.91,9.33s8.9-3.78,8.9-9.33v-32.91h10.26v33.48c0,11.75-8.19,18.09-19.16,18.09s-19.09-6.34-19.09-18.09v-33.48h10.19Z"/><path class="x" d="M791.81,97.29c11.83,0,18.66,6.48,18.66,15.96,0,7.05-3.78,12.32-10.54,14.6l13.53,19.3h-12.18l-11.61-18.09h-4.42v18.09h-10.26v-49.87h16.81Zm-6.55,8.83v14.82h5.91c5.27,0,8.69-2.71,8.69-7.41s-3.42-7.41-8.69-7.41h-5.91Z"/><path class="x" d="M866.25,97.29v52.36l-35.33-33.27v30.78h-9.97v-52.36l35.41,33.27v-30.77h9.9Z"/><path class="x" d="M889.33,97.29v20.23l17.74-20.23h12.18l-20.66,23.37,21.65,26.5h-12.4l-18.52-22.58v22.58h-10.54v-49.87h10.54Z"/><path class="x" d="M959.28,97.29v8.69h-21.8v10.47h20.37v8.48h-20.37v13.53h21.8v8.69h-31.77v-49.87h31.77Z"/><path class="x" d="M1010.57,97.29l-17.17,29.21v20.66h-10.47v-20.59l-17.17-29.28h11.75l10.62,20.09,10.68-20.09h11.75Z"/><path class="x" d="M713.74,213.68h-17.1l-5.13,11.26h-11.61l25.29-52.86,25.36,52.86h-11.61l-5.2-11.26Zm-14.68-8.12h12.25l-6.13-14.25-6.13,14.25Z"/><path class="x" d="M759.83,216.1c7.05,0,11.9-2.99,15.25-6.84v11.54c-4.06,3.28-8.41,5.13-15.67,5.13-15.39,0-26.64-10.54-26.64-25.93s11.26-25.93,26.64-25.93c7.27,0,11.61,1.85,15.67,5.13v11.54c-3.35-3.85-8.19-6.84-15.25-6.84-8.55,0-15.96,6.2-15.96,16.1s7.41,16.1,15.96,16.1Z"/><path class="x" d="M811.12,216.1c7.05,0,11.9-2.99,15.24-6.84v11.54c-4.06,3.28-8.41,5.13-15.67,5.13-15.39,0-26.64-10.54-26.64-25.93s11.26-25.93,26.64-25.93c7.27,0,11.61,1.85,15.67,5.13v11.54c-3.35-3.85-8.19-6.84-15.24-6.84-8.55,0-15.96,6.2-15.96,16.1s7.41,16.1,15.96,16.1Z"/><path class="x" d="M861.69,174.07c15.1,0,26.36,10.83,26.36,25.93s-11.04,26.22-26.36,26.22-26.36-11.11-26.36-26.22,11.4-25.93,26.36-25.93Zm0,42.32c9.19,0,15.53-6.84,15.53-16.39s-6.13-16.39-15.53-16.39-15.53,6.84-15.53,16.39,6.34,16.39,15.53,16.39Z"/><path class="x" d="M907.56,175.07v32.91c0,5.56,3.06,9.33,8.9,9.33s8.91-3.78,8.91-9.33v-32.91h10.26v33.48c0,11.75-8.19,18.09-19.16,18.09s-19.09-6.34-19.09-18.09v-33.48h10.19Z"/><path class="x" d="M993.12,175.07v52.36l-35.33-33.27v30.78h-9.97v-52.36l35.41,33.27v-30.77h9.9Z"/><path class="x" d="M1000.66,175.07h37.12v9.26h-13.46v40.61h-10.26v-40.61h-13.39v-9.26Z"/><path class="x" d="M1055.73,175.07v49.87h-10.4v-49.87h10.4Z"/><path class="x" d="M1113.57,175.07v52.36l-35.33-33.27v30.78h-9.97v-52.36l35.41,33.27v-30.77h9.9Z"/><path class="x" d="M1150.33,198.29h24.65c.57,15.25-8.55,27.93-25.07,27.93-15.53,0-26.64-10.69-26.64-26.22s11.4-25.93,26.93-25.93c10.12,0,17.46,4.49,22.01,11.4l-8.76,5.13c-2.56-4.28-6.84-7.41-13.25-7.41-8.98,0-16.24,6.41-16.24,16.81s6.98,17.1,16.24,17.1c8.12,0,12.75-4.7,14.39-10.69h-14.25v-8.12Z"/><path class="x" d="M702.2,295.16c4.13,0,6.84-2.28,6.84-5.84,0-4.56-3.56-6.13-10.26-8.69-4.99-1.85-13.32-5.41-13.32-14.96,0-8.41,7.2-13.82,16.53-13.82s15.03,5.56,17.6,10.69l-7.98,4.56c-2.14-3.56-5.2-6.48-9.62-6.48-3.99,0-5.98,2.14-5.98,4.63,0,3.7,3.7,5.77,11.18,8.33,6.48,2.28,12.68,6.77,12.68,15.17,0,9.69-8.55,15.25-17.52,15.25s-16.81-5.7-20.09-12.82l7.41-5.27c3.13,5.56,7.2,9.26,12.54,9.26Z"/><path class="x" d="M753.34,251.84c15.1,0,26.36,10.83,26.36,25.93s-11.04,26.22-26.36,26.22-26.36-11.11-26.36-26.22,11.4-25.93,26.36-25.93Zm0,42.32c9.19,0,15.53-6.84,15.53-16.39s-6.13-16.39-15.53-16.39-15.53,6.84-15.53,16.39,6.34,16.39,15.53,16.39Z"/><path class="x" d="M799.65,252.84v40.89h19.88v8.98h-30.13v-49.87h10.26Z"/><path class="x" d="M836.9,252.84v32.91c0,5.56,3.06,9.33,8.9,9.33s8.91-3.78,8.91-9.33v-32.91h10.26v33.48c0,11.75-8.19,18.09-19.16,18.09s-19.09-6.34-19.09-18.09v-33.48h10.19Z"/><path class="x" d="M872.16,252.84h37.12v9.26h-13.46v40.61h-10.26v-40.61h-13.39v-9.26Z"/><path class="x" d="M927.22,252.84v49.87h-10.4v-49.87h10.4Z"/><path class="x" d="M963.27,251.84c15.1,0,26.36,10.83,26.36,25.93s-11.04,26.22-26.36,26.22-26.36-11.11-26.36-26.22,11.4-25.93,26.36-25.93Zm0,42.32c9.19,0,15.53-6.84,15.53-16.39s-6.13-16.39-15.53-16.39-15.53,6.84-15.53,16.39,6.34,16.39,15.53,16.39Z"/><path class="x" d="M1044.62,252.84v52.36l-35.33-33.27v30.78h-9.97v-52.36l35.41,33.27v-30.77h9.9Z"/><path class="x" d="M1074.11,295.16c4.13,0,6.84-2.28,6.84-5.84,0-4.56-3.56-6.13-10.26-8.69-4.99-1.85-13.32-5.41-13.32-14.96,0-8.41,7.2-13.82,16.53-13.82s15.03,5.56,17.6,10.69l-7.98,4.56c-2.14-3.56-5.2-6.48-9.62-6.48-3.99,0-5.98,2.14-5.98,4.63,0,3.7,3.71,5.77,11.18,8.33,6.48,2.28,12.68,6.77,12.68,15.17,0,9.69-8.55,15.25-17.52,15.25s-16.81-5.7-20.09-12.82l7.41-5.27c3.13,5.56,7.2,9.26,12.54,9.26Z"/></g></svg>

<svg  viewBox="0 0 1250 400" fill="none" xmlns="http://www.w3.org/2000/svg">
<path d="M418.18 99.78H370.77L317.6 236.64H356.07L394.47 137.78L459.51 305.2H497.98L418.18 99.78Z" fill="url(#paint0_linear_5252_41064)"/>
<path d="M391.44 129.97C386.12 116.28 367.12 115.36 360.49 128.47C358.19 133.02 355.88 138.1 353.7 143.71L317.6 236.63H356.07L394.48 137.77L401.65 156.23L391.45 129.96L391.44 129.97Z" fill="url(#paint1_linear_5252_41064)"/>
<path d="M592.17 305.2H517.8L503.95 269.34H592.17C605.66 269.34 616.63 258.37 616.63 244.88C616.63 231.39 605.66 220.42 592.17 220.42H519.63C486.37 220.42 459.31 193.36 459.31 160.1C459.31 126.84 486.37 99.78 519.63 99.78H628.7V135.64H519.63C506.14 135.64 495.17 146.61 495.17 160.1C495.17 173.59 506.14 184.56 519.63 184.56H592.17C625.43 184.56 652.49 211.62 652.49 244.88C652.49 278.14 625.43 305.2 592.17 305.2V305.2Z" fill="url(#paint2_linear_5252_41064)"/>
<path d="M277.37 117.85H241.51V305.2H277.37V117.85Z" fill="url(#paint3_linear_5252_41064)"/>
<path d="M310.72 254.35L290.96 305.2H329.43L337.66 284.01C343.21 269.73 332.67 254.35 317.36 254.35H310.71H310.72Z" fill="url(#paint4_linear_5252_41064)"/>
<path d="M413.68 213.44C412.52 210.17 409.45 207.95 405.98 207.95H188.42V236.64H405.97C409.44 236.64 412.51 234.43 413.67 231.15C414.64 228.41 415.18 225.42 415.18 222.29C415.18 219.16 414.64 216.18 413.67 213.43L413.68 213.44Z" fill="url(#paint5_linear_5252_41064)"/>
<path d="M371.7 285.46H351.96V305.2H371.7V285.46Z" fill="url(#paint6_linear_5252_41064)"/>
<path d="M398.9 266.11H379.16V305.2H398.9V266.11Z" fill="url(#paint7_linear_5252_41064)"/>
<path d="M426.1 250.05H406.36V305.2H426.1V250.05Z" fill="url(#paint8_linear_5252_41064)"/>
<path d="M192.19 194.54H166.02V250.06H192.19V194.54Z" fill="url(#paint9_linear_5252_41064)"/>
<path d="M127.5 293.53C98.06 293.53 75 262.24 75 222.29C75 182.34 98.06 151.05 127.5 151.05C156.94 151.05 180 182.34 180 222.29C180 262.24 156.94 293.53 127.5 293.53ZM127.5 172.57C110.7 172.57 96.51 195.34 96.51 222.29C96.51 249.24 110.7 272.01 127.5 272.01C144.3 272.01 158.49 249.24 158.49 222.29C158.49 195.34 144.3 172.57 127.5 172.57V172.57Z" fill="url(#paint10_linear_5252_41064)"/>
<path d="M166.91 99.92L180.9 135.78H337.97L351.96 99.92H166.91Z" fill="url(#paint11_linear_5252_41064)"/>
<path d="M351.96 99.92H238.22C259.78 99.92 277.37 117.29 277.37 135.78H337.97L351.96 99.92Z" fill="url(#paint12_linear_5252_41064)"/>
<path d="M459.31 160.1C459.31 193.36 486.37 220.42 519.63 220.42H555.9C514.72 220.42 495.17 190.02 495.17 160.1C495.17 146.61 506.14 135.64 519.63 135.64H628.7V99.78H519.63C486.37 99.78 459.31 126.84 459.31 160.1V160.1Z" fill="url(#paint13_linear_5252_41064)"/>
<path d="M680.26 97.29H717.38V106.55H703.92V147.16H693.66V106.55H680.27V97.29H680.26Z" fill="black"/>
<path d="M734.75 97.29V130.2C734.75 135.76 737.81 139.53 743.66 139.53C749.51 139.53 752.56 135.75 752.56 130.2V97.29H762.82V130.77C762.82 142.52 754.63 148.86 743.66 148.86C732.69 148.86 724.57 142.52 724.57 130.77V97.29H734.76H734.75Z" fill="black"/>
<path d="M791.81 97.29C803.64 97.29 810.47 103.77 810.47 113.25C810.47 120.3 806.69 125.57 799.93 127.85L813.46 147.15H801.28L789.67 129.06H785.25V147.15H774.99V97.28H791.8L791.81 97.29ZM785.26 106.12V120.94H791.17C796.44 120.94 799.86 118.23 799.86 113.53C799.86 108.83 796.44 106.12 791.17 106.12H785.26Z" fill="black"/>
<path d="M866.25 97.29V149.65L830.92 116.38V147.16H820.95V94.8L856.36 128.07V97.3H866.26L866.25 97.29Z" fill="black"/>
<path d="M889.33 97.29V117.52L907.07 97.29H919.25L898.59 120.66L920.24 147.16H907.84L889.32 124.58V147.16H878.78V97.29H889.32H889.33Z" fill="black"/>
<path d="M959.28 97.29V105.98H937.48V116.45H957.85V124.93H937.48V138.46H959.28V147.15H927.51V97.28H959.28V97.29Z" fill="black"/>
<path d="M1010.57 97.29L993.4 126.5V147.16H982.93V126.57L965.76 97.29H977.51L988.13 117.38L998.81 97.29H1010.56H1010.57Z" fill="black"/>
<path d="M713.74 213.68H696.64L691.51 224.94H679.9L705.19 172.08L730.55 224.94H718.94L713.74 213.68V213.68ZM699.06 205.56H711.31L705.18 191.31L699.05 205.56H699.06Z" fill="black"/>
<path d="M759.83 216.1C766.88 216.1 771.73 213.11 775.08 209.26V220.8C771.02 224.08 766.67 225.93 759.41 225.93C744.02 225.93 732.77 215.39 732.77 200C732.77 184.61 744.03 174.07 759.41 174.07C766.68 174.07 771.02 175.92 775.08 179.2V190.74C771.73 186.89 766.89 183.9 759.83 183.9C751.28 183.9 743.87 190.1 743.87 200C743.87 209.9 751.28 216.1 759.83 216.1V216.1Z" fill="black"/>
<path d="M811.12 216.1C818.17 216.1 823.02 213.11 826.36 209.26V220.8C822.3 224.08 817.95 225.93 810.69 225.93C795.3 225.93 784.05 215.39 784.05 200C784.05 184.61 795.31 174.07 810.69 174.07C817.96 174.07 822.3 175.92 826.36 179.2V190.74C823.01 186.89 818.17 183.9 811.12 183.9C802.57 183.9 795.16 190.1 795.16 200C795.16 209.9 802.57 216.1 811.12 216.1V216.1Z" fill="black"/>
<path d="M861.69 174.07C876.79 174.07 888.05 184.9 888.05 200C888.05 215.1 877.01 226.22 861.69 226.22C846.37 226.22 835.33 215.11 835.33 200C835.33 184.89 846.73 174.07 861.69 174.07ZM861.69 216.39C870.88 216.39 877.22 209.55 877.22 200C877.22 190.45 871.09 183.61 861.69 183.61C852.29 183.61 846.16 190.45 846.16 200C846.16 209.55 852.5 216.39 861.69 216.39Z" fill="black"/>
<path d="M907.56 175.07V207.98C907.56 213.54 910.62 217.31 916.46 217.31C922.3 217.31 925.37 213.53 925.37 207.98V175.07H935.63V208.55C935.63 220.3 927.44 226.64 916.47 226.64C905.5 226.64 897.38 220.3 897.38 208.55V175.07H907.57H907.56Z" fill="black"/>
<path d="M993.12 175.07V227.43L957.79 194.16V224.94H947.82V172.58L983.23 205.85V175.08H993.13L993.12 175.07Z" fill="black"/>
<path d="M1000.66 175.07H1037.78V184.33H1024.32V224.94H1014.06V184.33H1000.67V175.07H1000.66Z" fill="black"/>
<path d="M1055.73 175.07V224.94H1045.33V175.07H1055.73Z" fill="black"/>
<path d="M1113.57 175.07V227.43L1078.24 194.16V224.94H1068.27V172.58L1103.68 205.85V175.08H1113.58L1113.57 175.07Z" fill="black"/>
<path d="M1150.33 198.29H1174.98C1175.55 213.54 1166.43 226.22 1149.91 226.22C1134.38 226.22 1123.27 215.53 1123.27 200C1123.27 184.47 1134.67 174.07 1150.2 174.07C1160.32 174.07 1167.66 178.56 1172.21 185.47L1163.45 190.6C1160.89 186.32 1156.61 183.19 1150.2 183.19C1141.22 183.19 1133.96 189.6 1133.96 200C1133.96 210.4 1140.94 217.1 1150.2 217.1C1158.32 217.1 1162.95 212.4 1164.59 206.41H1150.34V198.29H1150.33Z" fill="black"/>
<path d="M702.2 295.16C706.33 295.16 709.04 292.88 709.04 289.32C709.04 284.76 705.48 283.19 698.78 280.63C693.79 278.78 685.46 275.22 685.46 265.67C685.46 257.26 692.66 251.85 701.99 251.85C711.32 251.85 717.02 257.41 719.59 262.54L711.61 267.1C709.47 263.54 706.41 260.62 701.99 260.62C698 260.62 696.01 262.76 696.01 265.25C696.01 268.95 699.71 271.02 707.19 273.58C713.67 275.86 719.87 280.35 719.87 288.75C719.87 298.44 711.32 304 702.35 304C693.38 304 685.54 298.3 682.26 291.18L689.67 285.91C692.8 291.47 696.87 295.17 702.21 295.17L702.2 295.16Z" fill="black"/>
<path d="M753.34 251.84C768.44 251.84 779.7 262.67 779.7 277.77C779.7 292.87 768.66 303.99 753.34 303.99C738.02 303.99 726.98 292.88 726.98 277.77C726.98 262.66 738.38 251.84 753.34 251.84V251.84ZM753.34 294.16C762.53 294.16 768.87 287.32 768.87 277.77C768.87 268.22 762.74 261.38 753.34 261.38C743.94 261.38 737.81 268.22 737.81 277.77C737.81 287.32 744.15 294.16 753.34 294.16Z" fill="black"/>
<path d="M799.65 252.84V293.73H819.53V302.71H789.4V252.84H799.66H799.65Z" fill="black"/>
<path d="M836.9 252.84V285.75C836.9 291.31 839.96 295.08 845.8 295.08C851.64 295.08 854.71 291.3 854.71 285.75V252.84H864.97V286.32C864.97 298.07 856.78 304.41 845.81 304.41C834.84 304.41 826.72 298.07 826.72 286.32V252.84H836.91H836.9Z" fill="black"/>
<path d="M872.16 252.84H909.28V262.1H895.82V302.71H885.56V262.1H872.17V252.84H872.16Z" fill="black"/>
<path d="M927.22 252.84V302.71H916.82V252.84H927.22V252.84Z" fill="black"/>
<path d="M963.27 251.84C978.37 251.84 989.63 262.67 989.63 277.77C989.63 292.87 978.59 303.99 963.27 303.99C947.95 303.99 936.91 292.88 936.91 277.77C936.91 262.66 948.31 251.84 963.27 251.84V251.84ZM963.27 294.16C972.46 294.16 978.8 287.32 978.8 277.77C978.8 268.22 972.67 261.38 963.27 261.38C953.87 261.38 947.74 268.22 947.74 277.77C947.74 287.32 954.08 294.16 963.27 294.16Z" fill="black"/>
<path d="M1044.62 252.84V305.2L1009.29 271.93V302.71H999.32V250.35L1034.73 283.62V252.85H1044.63L1044.62 252.84Z" fill="black"/>
<path d="M1074.11 295.16C1078.24 295.16 1080.95 292.88 1080.95 289.32C1080.95 284.76 1077.39 283.19 1070.69 280.63C1065.7 278.78 1057.37 275.22 1057.37 265.67C1057.37 257.26 1064.57 251.85 1073.9 251.85C1083.23 251.85 1088.93 257.41 1091.5 262.54L1083.52 267.1C1081.38 263.54 1078.32 260.62 1073.9 260.62C1069.91 260.62 1067.92 262.76 1067.92 265.25C1067.92 268.95 1071.63 271.02 1079.1 273.58C1085.58 275.86 1091.78 280.35 1091.78 288.75C1091.78 298.44 1083.23 304 1074.26 304C1065.29 304 1057.45 298.3 1054.17 291.18L1061.58 285.91C1064.71 291.47 1068.78 295.17 1074.12 295.17L1074.11 295.16Z" fill="black"/>
<defs>
<linearGradient id="paint0_linear_5252_41064" x1="407.79" y1="97.2" x2="407.79" y2="302.37" gradientUnits="userSpaceOnUse">
<stop stop-color="#4B9AD4"/>
<stop offset="0.38" stop-color="#4068B2"/>
<stop offset="1" stop-color="#292B77"/>
</linearGradient>
<linearGradient id="paint1_linear_5252_41064" x1="355.34" y1="210.72" x2="380.55" y2="126.67" gradientUnits="userSpaceOnUse">
<stop stop-color="#4B9AD4"/>
<stop offset="0.38" stop-color="#4068B2"/>
<stop offset="1" stop-color="#292B77"/>
</linearGradient>
<linearGradient id="paint2_linear_5252_41064" x1="603.26" y1="233.45" x2="534.74" y2="162.74" gradientUnits="userSpaceOnUse">
<stop stop-color="#4B9AD4"/>
<stop offset="0.38" stop-color="#4068B2"/>
<stop offset="1" stop-color="#292B77"/>
</linearGradient>
<linearGradient id="paint3_linear_5252_41064" x1="259.43" y1="97.2" x2="259.43" y2="302.37" gradientUnits="userSpaceOnUse">
<stop stop-color="#4B9AD4"/>
<stop offset="0.38" stop-color="#4068B2"/>
<stop offset="1" stop-color="#292B77"/>
</linearGradient>
<linearGradient id="paint4_linear_5252_41064" x1="312.77" y1="301.21" x2="323" y2="259.91" gradientUnits="userSpaceOnUse">
<stop stop-color="#4B9AD4"/>
<stop offset="0.38" stop-color="#4068B2"/>
<stop offset="1" stop-color="#292B77"/>
</linearGradient>
<linearGradient id="paint5_linear_5252_41064" x1="301.81" y1="207.55" x2="301.81" y2="246.96" gradientUnits="userSpaceOnUse">
<stop stop-color="#4B9AD4"/>
<stop offset="0.38" stop-color="#4068B2"/>
<stop offset="1" stop-color="#292B77"/>
</linearGradient>
<linearGradient id="paint6_linear_5252_41064" x1="361.83" y1="238.9" x2="361.83" y2="329.51" gradientUnits="userSpaceOnUse">
<stop stop-color="#4B9AD4"/>
<stop offset="0.38" stop-color="#4068B2"/>
<stop offset="1" stop-color="#292B77"/>
</linearGradient>
<linearGradient id="paint7_linear_5252_41064" x1="389.03" y1="238.9" x2="389.03" y2="329.51" gradientUnits="userSpaceOnUse">
<stop stop-color="#4B9AD4"/>
<stop offset="0.38" stop-color="#4068B2"/>
<stop offset="1" stop-color="#292B77"/>
</linearGradient>
<linearGradient id="paint8_linear_5252_41064" x1="416.23" y1="238.9" x2="416.23" y2="329.51" gradientUnits="userSpaceOnUse">
<stop stop-color="#4B9AD4"/>
<stop offset="0.38" stop-color="#4068B2"/>
<stop offset="1" stop-color="#292B77"/>
</linearGradient>
<linearGradient id="paint9_linear_5252_41064" x1="179.11" y1="184.61" x2="179.11" y2="270.08" gradientUnits="userSpaceOnUse">
<stop stop-color="#4B9AD4"/>
<stop offset="0.38" stop-color="#4068B2"/>
<stop offset="1" stop-color="#292B77"/>
</linearGradient>
<linearGradient id="paint10_linear_5252_41064" x1="127.5" y1="150.03" x2="127.5" y2="322.94" gradientUnits="userSpaceOnUse">
<stop stop-color="#4B9AD4"/>
<stop offset="0.38" stop-color="#4068B2"/>
<stop offset="1" stop-color="#292B77"/>
</linearGradient>
<linearGradient id="paint11_linear_5252_41064" x1="259.43" y1="97.2" x2="259.43" y2="302.37" gradientUnits="userSpaceOnUse">
<stop stop-color="#4B9AD4"/>
<stop offset="0.38" stop-color="#4068B2"/>
<stop offset="1" stop-color="#292B77"/>
</linearGradient>
<linearGradient id="paint12_linear_5252_41064" x1="344.92" y1="117.85" x2="247.28" y2="117.85" gradientUnits="userSpaceOnUse">
<stop stop-color="#4B9AD4"/>
<stop offset="0.38" stop-color="#4068B2"/>
<stop offset="1" stop-color="#292B77"/>
</linearGradient>
<linearGradient id="paint13_linear_5252_41064" x1="544.01" y1="97.2" x2="544.01" y2="302.37" gradientUnits="userSpaceOnUse">
<stop stop-color="#4B9AD4"/>
<stop offset="0.38" stop-color="#4068B2"/>
<stop offset="1" stop-color="#292B77"/>
</linearGradient>
</defs>
</svg>
